src/topics/icons/sparkpost.svg

<svg height="134" preserveAspectRatio="xMidYMid" viewBox="0 0 512 134" width="512" xmlns="http://www.w3.org/2000/svg"><path d="m.64321608 118.994975 7.9758794-9.648241c5.53165832 4.631155 11.32060302 7.461306 18.39597992 7.461306 5.5316583 0 8.8763819-2.186934 8.8763819-5.788945v-.128643c0-3.473367-2.0582915-5.145728-12.478392-7.847236-12.2211055-3.2160803-20.32562811-6.6894472-20.32562811-18.9105527v-.1286432c0-11.1919598 9.00502511-18.6532663 21.61206031-18.6532663 9.0050251 0 16.5949749 2.8301507 22.8984924 7.8472361l-7.0753768 10.1628141c-5.4030151-3.7306532-10.8060302-6.0462311-16.080402-6.0462311-5.1457287 0-7.9758794 2.4442211-7.9758794 5.403015v.1286433c0 4.1165829 2.7015075 5.403015 13.2502512 8.1045226 12.478392 3.2160804 19.5537689 7.7185929 19.5537689 18.5246232v.128643c0 12.221106-9.3909548 19.167839-22.6412061 19.167839-9.1336683 0-18.52462309-3.21608-25.98592962-9.776884zm57.11758792-52.7437187h25.2140704c14.6653266 0 23.6703516 8.7477387 23.6703516 21.3547739v.1286432c0 14.2793966-11.0633165 21.7407036-24.9567838 21.7407036h-10.2914573v18.524623h-13.6361809zm24.3135679 31.1316583c6.8180904 0 10.8060301-4.1165829 10.8060301-9.3909548v-.1286432c0-6.0462312-4.2452261-9.3909548-11.0633166-9.3909548h-10.5487437v18.9105528zm43.7386931-31.517588h12.478392l26.500503 62.1346734h-14.150754l-5.660301-13.893467h-26.114573l-5.660302 13.893467h-13.764824zm14.279397 36.2773874-8.233166-20.0683421-8.233165 20.0683421zm31.131659-35.8914577h28.172864c7.847236 0 13.893467 2.1869347 18.01005 6.3035176 3.473367 3.4733668 5.274372 8.2331658 5.274372 14.1507537v.1286433c0 9.9055276-5.403015 16.2090451-13.250251 19.1678391l15.051256 21.99799h-15.823116l-13.250251-19.682412h-10.677387v19.682412h-13.636181v-61.7487437zm27.272361 29.9738693c6.560804 0 10.420101-3.4733668 10.420101-8.7477387v-.1286432c0-5.7889447-4.116583-8.8763819-10.677387-8.8763819h-13.507538v17.7527638zm96.353769-29.9738693h22.38392c13.636181 0 22.898492 6.9467336 22.898492 18.9105527v.1286433c0 12.9929648-11.191959 19.6824117-24.056281 19.6824117h-16.594975v23.027136h-4.631156zm21.483417 34.4763817c11.449247 0 19.16784-6.046231 19.16784-15.1798993v-.1286432c0-9.7768844-7.58995-14.9226131-18.653267-14.9226131h-17.495477v30.2311556zm97.254272 18.267337 2.958794-3.473367c6.81809 6.303518 12.992964 9.133668 22.126633 9.133668 9.262311 0 15.565829-5.145728 15.565829-12.221105v-.128643c0-6.560804-3.473367-10.291458-17.495477-13.1216084-14.79397-2.958794-20.840201-7.9758794-20.840201-17.3668342v-.1286432c0-9.1336683 8.361809-16.2090452 19.811055-16.2090452 9.005025 0 14.922613 2.4442211 21.097487 7.4613065l-2.958794 3.6020101c-5.788944-5.0170855-11.577889-6.9467337-18.39598-6.9467337-9.133668 0-15.051256 5.1457286-15.051256 11.5778894v.1286433c0 6.560804 3.344724 10.5487437 18.01005 13.5075377 14.279397 2.9587939 20.325629 7.9758797 20.325629 16.9809047v.128643c0 9.905528-8.490453 16.852261-20.454272 16.852261-9.776884 0-17.366834-3.21608-24.699497-9.776884zm71.654271-48.4984926h-21.483417v-4.2452261h47.59799v4.2452261h-21.483417v57.5035176h-4.631156zm-239.662312 21.7407035 21.354774-25.9859296h16.594975l-25.085427 29.3306532 26.886432 32.4180905h-17.495477l-22.255277-27.658291v27.529648h-13.507537v-61.7487439h13.507537z" fill="#55555a"/><path d="m399.437186 52.2291457c-6.818091 5.1457287-8.233166 14.279397-8.361809 20.4542714-10.80603-12.6070352 20.068342-49.5276382-15.051256-72.29748745 21.740703 28.17286435-31.003015 55.95979895-31.003015 97.51155775 0 16.3376886 10.162814 30.6170856 32.546733 35.6341706 21.869347-4.631155 32.80402-19.296482 32.80402-35.6341706-.128643-24.3135678-15.308542-32.4180904-10.934673-45.6683417zm-21.869347 67.9236183c-11.963819 0-21.61206-9.648241-21.61206-21.6120605 0-11.9638191 9.648241-21.6120603 21.61206-21.6120603s21.61206 9.6482412 21.61206 21.6120603c0 11.9638195-9.776884 21.6120605-21.61206 21.6120605z" fill="#fa6423"/></svg>

<?xml version="1.0" encoding="UTF-8" standalone="no"?>
<svg width="512px" height="134px" viewBox="0 0 512 134" version="1.1" xmlns="http://www.w3.org/2000/svg" xmlns:xlink="http://www.w3.org/1999/xlink" preserveAspectRatio="xMidYMid">
	<g>
		<path d="M0.64321608,118.994975 L8.61909548,109.346734 C14.1507538,113.977889 19.9396985,116.80804 27.0150754,116.80804 C32.5467337,116.80804 35.8914573,114.621106 35.8914573,111.019095 L35.8914573,110.890452 C35.8914573,107.417085 33.8331658,105.744724 23.4130653,103.043216 C11.1919598,99.8271357 3.08743719,96.3537688 3.08743719,84.1326633 L3.08743719,84.0040201 C3.08743719,72.8120603 12.0924623,65.3507538 24.6994975,65.3507538 C33.7045226,65.3507538 41.2944724,68.1809045 47.5979899,73.1979899 L40.5226131,83.360804 C35.119598,79.6301508 29.7165829,77.3145729 24.4422111,77.3145729 C19.2964824,77.3145729 16.4663317,79.758794 16.4663317,82.7175879 L16.4663317,82.8462312 C16.4663317,86.9628141 19.1678392,88.2492462 29.7165829,90.9507538 C42.1949749,94.1668342 49.2703518,98.6693467 49.2703518,109.475377 L49.2703518,109.60402 C49.2703518,121.825126 39.879397,128.771859 26.6291457,128.771859 C17.4954774,128.771859 8.10452261,125.555779 0.64321608,118.994975 L0.64321608,118.994975 Z M57.760804,66.2512563 L82.9748744,66.2512563 C97.640201,66.2512563 106.645226,74.998995 106.645226,87.6060302 L106.645226,87.7346734 C106.645226,102.01407 95.5819095,109.475377 81.6884422,109.475377 L71.3969849,109.475377 L71.3969849,128 L57.760804,128 L57.760804,66.2512563 L57.760804,66.2512563 Z M82.0743719,97.3829146 C88.8924623,97.3829146 92.880402,93.2663317 92.880402,87.9919598 L92.880402,87.8633166 C92.880402,81.8170854 88.6351759,78.4723618 81.8170854,78.4723618 L71.2683417,78.4723618 L71.2683417,97.3829146 L82.0743719,97.3829146 L82.0743719,97.3829146 Z M125.813065,65.8653266 L138.291457,65.8653266 L164.79196,128 L150.641206,128 L144.980905,114.106533 L118.866332,114.106533 L113.20603,128 L99.441206,128 L125.813065,65.8653266 L125.813065,65.8653266 Z M140.092462,102.142714 L131.859296,82.0743719 L123.626131,102.142714 L140.092462,102.142714 L140.092462,102.142714 Z M171.224121,66.2512563 L199.396985,66.2512563 C207.244221,66.2512563 213.290452,68.438191 217.407035,72.5547739 C220.880402,76.0281407 222.681407,80.7879397 222.681407,86.7055276 L222.681407,86.8341709 C222.681407,96.7396985 217.278392,103.043216 209.431156,106.00201 L224.482412,128 L208.659296,128 L195.409045,108.317588 L184.731658,108.317588 L184.731658,128 L171.095477,128 L171.095477,66.2512563 L171.224121,66.2512563 Z M198.496482,96.2251256 C205.057286,96.2251256 208.916583,92.7517588 208.916583,87.4773869 L208.916583,87.3487437 C208.916583,81.559799 204.8,78.4723618 198.239196,78.4723618 L184.731658,78.4723618 L184.731658,96.2251256 L198.496482,96.2251256 L198.496482,96.2251256 Z M294.850251,66.2512563 L317.234171,66.2512563 C330.870352,66.2512563 340.132663,73.1979899 340.132663,85.161809 L340.132663,85.2904523 C340.132663,98.2834171 328.940704,104.972864 316.076382,104.972864 L299.481407,104.972864 L299.481407,128 L294.850251,128 L294.850251,66.2512563 L294.850251,66.2512563 Z M316.333668,100.727638 C327.782915,100.727638 335.501508,94.681407 335.501508,85.5477387 L335.501508,85.4190955 C335.501508,75.6422111 327.911558,70.4964824 316.848241,70.4964824 L299.352764,70.4964824 L299.352764,100.727638 L316.333668,100.727638 L316.333668,100.727638 Z M413.58794,118.994975 L416.546734,115.521608 C423.364824,121.825126 429.539698,124.655276 438.673367,124.655276 C447.935678,124.655276 454.239196,119.509548 454.239196,112.434171 L454.239196,112.305528 C454.239196,105.744724 450.765829,102.01407 436.743719,99.1839196 C421.949749,96.2251256 415.903518,91.2080402 415.903518,81.8170854 L415.903518,81.6884422 C415.903518,72.5547739 424.265327,65.479397 435.714573,65.479397 C444.719598,65.479397 450.637186,67.9236181 456.81206,72.9407035 L453.853266,76.5427136 C448.064322,71.5256281 442.275377,69.5959799 435.457286,69.5959799 C426.323618,69.5959799 420.40603,74.7417085 420.40603,81.1738693 L420.40603,81.3025126 C420.40603,87.8633166 423.750754,91.8512563 438.41608,94.8100503 C452.695477,97.7688442 458.741709,102.78593 458.741709,111.790955 L458.741709,111.919598 C458.741709,121.825126 450.251256,128.771859 438.287437,128.771859 C428.510553,128.771859 420.920603,125.555779 413.58794,118.994975 L413.58794,118.994975 Z M485.242211,70.4964824 L463.758794,70.4964824 L463.758794,66.2512563 L511.356784,66.2512563 L511.356784,70.4964824 L489.873367,70.4964824 L489.873367,128 L485.242211,128 L485.242211,70.4964824 L485.242211,70.4964824 Z M245.579899,92.2371859 L266.934673,66.2512563 L283.529648,66.2512563 L258.444221,95.5819095 L285.330653,128 L267.835176,128 L245.579899,100.341709 L245.579899,127.871357 L232.072362,127.871357 L232.072362,66.1226131 L245.579899,66.1226131 L245.579899,92.2371859 L245.579899,92.2371859 Z" fill="#55555A"></path>
		<path d="M399.437186,52.2291457 C392.619095,57.3748744 391.20402,66.5085427 391.075377,72.6834171 C380.269347,60.0763819 411.143719,23.1557789 376.024121,0.385929648 C397.764824,28.558794 345.021106,56.3457286 345.021106,97.8974874 C345.021106,114.235176 355.18392,128.514573 377.567839,133.531658 C399.437186,128.900503 410.371859,114.235176 410.371859,97.8974874 C410.243216,73.5839196 395.063317,65.479397 399.437186,52.2291457 L399.437186,52.2291457 Z M377.567839,120.152764 C365.60402,120.152764 355.955779,110.504523 355.955779,98.5407035 C355.955779,86.5768844 365.60402,76.9286432 377.567839,76.9286432 C389.531658,76.9286432 399.179899,86.5768844 399.179899,98.5407035 C399.179899,110.504523 389.403015,120.152764 377.567839,120.152764 L377.567839,120.152764 Z" fill="#FA6423"></path>
	</g>
</svg>
